icons/invision-fill.svg

<svg xmlns="http://www.w3.org/2000/svg" width="24" height="24" fill="none"><g clip-path="url(#a)"><g><path fill="#121212" d="M4 3H20C20.2652 3 20.5196 3.10536 20.7071 3.29289C20.8946 3.48043 21 3.73478 21 4V20C21 20.2652 20.8946 20.5196 20.7071 20.7071C20.5196 20.8946 20.2652 21 20 21H4C3.73478 21 3.48043 20.8946 3.29289 20.7071C3.10536 20.5196 3 20.2652 3 20V4C3 3.73478 3.10536 3.48043 3.29289 3.29289C3.48043 3.10536 3.73478 3 4 3ZM6.988 14.065C6.928 14.332 6.898 14.62 6.898 14.855C6.898 15.782 7.38 16.397 8.406 16.397C9.257 16.397 9.947 15.871 10.444 15.022L10.141 16.289H11.831L12.797 12.258C13.038 11.238 13.507 10.708 14.216 10.708C14.774 10.708 15.121 11.068 15.121 11.665C15.121 11.838 15.106 12.026 15.046 12.23L14.548 14.083C14.4768 14.3386 14.4411 14.6027 14.442 14.868C14.442 15.748 14.94 16.391 15.982 16.391C16.872 16.391 17.582 15.795 17.974 14.366L17.31 14.099C16.978 15.057 16.69 15.229 16.464 15.229C16.238 15.229 16.117 15.073 16.117 14.759C16.117 14.618 16.147 14.461 16.193 14.272L16.676 12.467C16.796 12.043 16.842 11.667 16.842 11.322C16.842 9.972 16.057 9.267 15.106 9.267C14.216 9.267 13.31 10.102 12.858 10.982L13.189 9.403H10.609L10.246 10.793H11.454L10.71 13.891C10.127 15.241 9.054 15.263 8.92 15.231C8.698 15.18 8.557 15.092 8.557 14.793C8.557 14.621 8.587 14.373 8.663 14.075L9.795 9.403H6.927L6.565 10.793H7.757L6.987 14.065H6.988ZM8.625 8.625C8.92337 8.625 9.20952 8.50647 9.4205 8.2955C9.63147 8.08452 9.75 7.79837 9.75 7.5C9.75 7.20163 9.63147 6.91548 9.4205 6.7045C9.20952 6.49353 8.92337 6.375 8.625 6.375C8.32663 6.375 8.04048 6.49353 7.8295 6.7045C7.61853 6.91548 7.5 7.20163 7.5 7.5C7.5 7.79837 7.61853 8.08452 7.8295 8.2955C8.04048 8.50647 8.32663 8.625 8.625 8.625Z"/></g></g><defs><clipPath id="a"><rect width="24" height="24" fill="white"/></clipPath></defs></svg>

<svg width="24" height="24" fill="none" xmlns="http://www.w3.org/2000/svg"><g clip-path="url(#a)"><path d="M4 3h16a1 1 0 0 1 1 1v16a1 1 0 0 1-1 1H4a1 1 0 0 1-1-1V4a1 1 0 0 1 1-1Zm2.988 11.065a3.77 3.77 0 0 0-.09.79c0 .927.482 1.542 1.508 1.542.851 0 1.541-.526 2.038-1.375l-.303 1.267h1.69l.966-4.031c.241-1.02.71-1.55 1.419-1.55.558 0 .905.36.905.957 0 .173-.015.361-.075.565l-.498 1.853c-.071.256-.107.52-.106.785 0 .88.498 1.523 1.54 1.523.89 0 1.6-.596 1.992-2.025l-.664-.267c-.332.958-.62 1.13-.846 1.13-.226 0-.347-.156-.347-.47 0-.141.03-.298.076-.487l.483-1.805c.12-.424.166-.8.166-1.145 0-1.35-.785-2.055-1.736-2.055-.89 0-1.796.835-2.248 1.715l.331-1.579h-2.58l-.363 1.39h1.208l-.744 3.098c-.583 1.35-1.656 1.372-1.79 1.34-.222-.051-.363-.139-.363-.438 0-.172.03-.42.106-.718l1.132-4.672H6.927l-.362 1.39h1.192l-.77 3.272h.001Zm1.637-5.44a1.125 1.125 0 1 0 0-2.25 1.125 1.125 0 0 0 0 2.25Z" /></g><defs><clipPath id="a"><path fill="#fff" d="M0 0h24v24H0z"/></clipPath></defs></svg>
